web-magabank/image/footer/icon-email.svg

<svg width="13" height="10" viewBox="0 0 13 10" fill="none" xmlns="http://www.w3.org/2000/svg">
<path d="M11.494 0.450001H1.744C1.111 0.450001 0.620005 0.964001 0.620005 1.573V8.323C0.61772 8.47138 0.64521 8.61871 0.70085 8.75628C0.756489 8.89385 0.839148 9.01886 0.943939 9.12393C1.04873 9.229 1.17353 9.312 1.31095 9.368C1.44837 9.42401 1.59562 9.45189 1.744 9.45H11.494C12.104 9.45 12.619 8.958 12.619 8.325V1.575C12.6151 1.27784 12.4953 0.993944 12.2852 0.783802C12.0751 0.573659 11.7912 0.453886 11.494 0.450001V0.450001ZM11.494 1.574V2.535C10.955 2.98 10.111 3.637 8.33 5.043C7.932 5.348 7.158 6.098 6.62 6.074C6.057 6.098 5.283 5.348 4.885 5.043C3.104 3.637 2.26 2.98 1.745 2.535V1.575H11.495L11.494 1.574ZM1.744 8.324V3.988C2.26 4.41 3.034 5.02 4.182 5.934C4.697 6.332 5.612 7.223 6.619 7.199C7.604 7.223 8.494 6.332 9.033 5.934C9.8507 5.282 10.671 4.63333 11.494 3.988V8.324H1.744V8.324Z" fill="white"/>
</svg>

<svg width="13" height="10" fill="none" xmlns="http://www.w3.org/2000/svg"><path d="M11.494.45h-9.75C1.111.45.62.964.62 1.573v6.75A1.11 1.11 0 001.744 9.45h9.75c.61 0 1.125-.492 1.125-1.125v-6.75A1.14 1.14 0 0011.494.45zm0 1.124v.961c-.539.445-1.383 1.102-3.164 2.508-.398.305-1.172 1.055-1.71 1.031-.563.024-1.337-.726-1.735-1.031C3.104 3.637 2.26 2.98 1.745 2.535v-.96h9.75l-.001-.001zm-9.75 6.75V3.988c.516.422 1.29 1.032 2.438 1.946.515.398 1.43 1.289 2.437 1.265.985.024 1.875-.867 2.414-1.265.818-.652 1.638-1.3 2.461-1.946v4.336h-9.75z" fill="#fff"/></svg>
